public/avatar/shoe/191.svg

<svg xmlns:xlink="http://www.w3.org/1999/xlink" height="38.3" width="36.05" xmlns="http://www.w3.org/2000/svg"><use height="18.15" transform="translate(9.2 10.15)" width="22.6" xlink:href="#a"/><defs><g id="a" fill-rule="evenodd"><path d="m5.2-.1.75-.45.3-.15L6-2q-.2-1-.85-1.55l-.1-.05L5-3.65 3.8-4.1l-5.05-.45-.4.05-2.75.4h-.1l-.4.05h-.05l-.5.25-2.1 2.65-.1.2.85 1.1-.7-.5-.35-.55 1.5-2.5q.5-.95 1.7-.95h.15l.45-.05 5.75-.3q2.2-.1 3.75 1.1l.3.25v.25L5.7-3l.85 2.25-.25.3-.25.05Q1.4 1.95-3.9 1.5l-1.4-.3h.1L-6.25.55q.95.55 2.4.6l.55.05.7.05 3.1.05h.15q2-.25 3.9-1.1l.2-.1.45-.2M4.1-3.4l-.4.2q-4.25 1.65-8.05-.2 2.75-.8 5.75-.65l2.4.15q-.25.05.3.5M6.5-.35l.1-.2.35 1q.3.75-.1 1.25l.6 1 .15.4q.45 1 .4 2.05l-.1-.1-.85.7q.7-1.7-.25-3.2-1.25-.2-2.5 0l-2.15.55-3.95.75q-3.35.25-5.7-1.6l-.35.15-.15-.35q-1.4 2-3.3 3.55 1.9.45 3.6 1.3l.05.05q-2.05-.4-3.65-1.3l-1.5 1.05q-1.5.95-.8 2l-.35-.2-.25-.35-.05-.05q-.4.65.25 1.15l1 .7q1.3.8 2.65 1.1 2.9.7 6.2-.65Q1.35 8.2 6.9 6.5l.75-.35Q6.25 7.2 4.5 7.45q-1.25.2-2.45.75l-3.6 1.7q-5.4 2.7-10.95.7l-1.3-.65-.8-.5q-.05-.95.45-1.75l1.4-1.3q1.6-.95 2.75-2.5l1.75-2.2-.15-.15-.5-.7q-.15-.3.1-.6l.7-.85.2.45q.95 1.3 2.5 1.65Q.65 2.95 6.15.4q.35-.2.35-.55v-.2M6 1.95l-.05-.05-.05.05H6m.4.05-.05-.05V2h.05m-18.7 10.55-.45-.15-.8-.5 1.25.65m-1.8-1.4-.35-.8.35.25-.1.15.15.35-.05.05m7.7-3.65-4.1-2.15h.1q2.3.6 4 2.1v.05" fill="#480002" transform="translate(14.6 4.7)"/><path d="M3.8-4.1h-.05q.1.55.85.9-1.1.45-1.9 1.05l1.75-.15.25-.15.05.3L5.2-.2v.1l-.45.2-.85-2.05-.05.05.7 2.1q-1.9.85-3.9 1.1l-.3-2.8Q.3-.05.5 1.3l-3.1-.05-.7-.05.7-2.8.05-.05 4.65-.3q-3.65.7-6.7-1.3l-.15-.15q2.45-.8 5.25-1l-2.15-.1.4-.05 5.05.45m.3.7q-.55-.45-.3-.5l-2.4-.15q-3-.15-5.75.65 3.8 1.85 8.05.2l.4-.2M-13.95 8.5l.35.2q-.7-1.05.8-2l1.5-1.05q1.6.9 3.65 1.3l-.05-.05q-1.7-.85-3.6-1.3Q-9.4 4.05-8 2.05l.15.35.35-.15q2.35 1.85 5.7 1.6l3.95-.75 2.15-.55q1.25-.2 2.5 0 .95 1.5.25 3.2v.1H7l-.4.3-.7.25-3.05.9q-.75.2-1.4.55-1.9.9-3.85 1.6l-2.85.9-1.15.3-.2.05q-2.05.45-4.2.05l-.75-.2Q-13.2 10-14 8.6v-.05l.05-.05M4.9 1.1l-1.15.55 1.4.1-.8.3-.7.15-1.55.45-1.35.15-.85.05h.4l.45-.1L2.2 2.3l-.05-.05H1.7l.6-.15-.85-.05L4.9 1.1m1.1.85h-.1l.05-.05.05.05m.4.05h-.05v-.05L6.4 2m-.55 3.7.25.15q1.95-.95.5-2.45-.85.95-.75 2.3m-7.6-2.85H-.1h-1.65L-3.8 2.6l.05-.25 1.45.45.55.05m-6.2-1.8-.3-.75.15-.65.05.1-.05.15-.05.2.05.1-.05.4q.05.25.15 0l.05-.05.1.15-.05.2.05.1h-.05l-.05.05m3.85 1.5.05-.1v.1l.25.05-.3-.05m-3-1.45.15.2-.35-.1.15-.15.05.05m-1.45 7.2L-9.2 8l-1.7-.75h-.05V7.2q-.25-.25-.1-.55l-.05-.05-.3-.15-.35.3-.35-.2-.35.1q-1.8.65-.1 1.75l.9.35 6.25-.25-1.3-.15-1.85-.05m3.3-6.4v.05h-.05l.05-.05M-6.4 7.5v-.05q-1.7-1.5-4-2.1h-.1l4.1 2.15m-4.85-.5.05.1-.2-.1h.15" fill="#910003" transform="translate(14.6 4.7)"/><path d="m3.8-4.1 1.2.45.05.05.1.05Q5.8-3 6-2l.25 1.3-.3.15-.75.45v-.1l-.45-1.95-.05-.3-.25.15-1.75.15q.8-.6 1.9-1.05-.75-.35-.85-.9h.05M4.75.1l-.2.1-.7-2.1.05-.05L4.75.1M.65 1.3H.5Q.3-.05.35-1.5l.3 2.8m-3.95-.1-.55-.05q-1.45-.05-2.4-.6l-.1-.05-.45-.35-.85-1.1.1-.2 2.1-2.65.5-.25h.05l.4-.05h.1l2.75-.4 2.15.1q-2.8.2-5.25 1l.15.15q3.05 2 6.7 1.3l-4.65.3-.05.05-.7 2.8m8.2-.1L6.2.55l.2-.1.05.4v.1l-.2.25-.45.25.45-.25.2-.25v-.1L6.4.45l-.2.1-1.3.55-3.45.95.85.05-.6.15h.45l.05.05-1.45.45-.45.1h-.4l.85-.05 1.35-.15 1.55-.45.7-.15.8-.3-1.4-.1L4.9 1.1m.75.4-.5.25.5-.25.15-.05.05-.1-.4.15-.05.05.25-.05m.2 4.2q-.1-1.35.75-2.3 1.45 1.5-.5 2.45l-.25-.15m-7.6-2.85-.55-.05-1.45-.45-.05.25 2.05.25m-6.3-3.1-.05-.1-.15.65.3.75.05-.05h.05L-7.9.9l.05-.2-.1-.15L-8 .6q-.1.25-.15 0l.05-.4-.05-.1.05-.2.05-.15v.05l1.55 1.55 1.25.55.7.15q3.05.5 6 0-2.95.5-6 0l-.7-.15-1.25-.55L-8.05-.2v-.05m3.95 2.8-.7-.15-.65-.2-.2-.05L-6.2 2l-.9-.35-.85-.6.85.6.9.35.55.15.2.05.65.2.7.15.3.05-.25-.05v-.1l-.05.1m-3-1.45-.05-.05-.15.15.35.1-.15-.2m1.85.8-.05.05h.05V1.9m-3.3 6.4 1.85.05 1.3.15-6.25.25-.9-.35q-1.7-1.1.1-1.75l.35-.1.35.2.35-.3.3.15.05.05q-.15.3.1.55v.05h.05l1.7.75.65.3m-2.7-1.3h-.15l.2.1-.05-.1" fill="#c60005" transform="translate(14.6 4.7)"/><path d="m-5.3 1.2 1.4.3q5.3.45 9.95-1.9l.25-.05-.95.75Q6.2.1 6.5-.35v.2q0 .35-.35.55Q.65 2.95-5.4 1.5q-1.55-.35-2.5-1.65l-.2-.45.25-.3.35.55-.25-.25-.05.05q.65 1.8 2.5 1.75M-13 9.95l-1-.7q-.65-.5-.25-1.15l.05.05h-.05q.45 1.1 1.25 1.8M3.55.85 3.3.9l-3.75.85h.05q2.2.15 3.95-.9" fill="#ffbe46" transform="translate(14.6 4.7)"/><path d="m-6.25.55 1.05.65h-.1q-1.85.05-2.5-1.75l.05-.05.25.25.7.5.45.35.1.05m12.55-1 .25-.3.05.2-.1.2Q6.2.1 5.35.3l.95-.75m-16.65 11.5q-1.35-.3-2.65-1.1-.8-.7-1.25-1.8h.05l.25.35-.05.05v.05q.8 1.4 2.45 1.95l1.6.5.05.05-.45-.05m17.4-5.2v-.1l.9-.55q-.05.95-1.45 1.4l-1.9.55h-.3l1.6-.75.7-.25.4-.3h.05m-3.5-5Q1.8 1.9-.4 1.75h-.05L3.3.9l.25-.05" fill="#fff" transform="translate(14.6 4.7)"/><path d="m-14.6 9.45.8.5 1.3.65q5.55 2 10.95-.7l3.6-1.7q1.2-.55 2.45-.75 1.75-.25 3.15-1.3l.15.05-.15.9-.05.1-.5 2.35-.7.4-.15.15-1.6.45-.4.15-1.35-.25-.45-.25-.25-.3q-1.35.75-2.7 1.45-4.15 2.85-9.35 1.85l-.25-.05-1.3-.3-.8-.25-.1-.05-1.25-.65h-.05l-.15-.25-.05-.05-.1-.1-.25-.35h.05l.05-.05-.15-.35.1-.15-.35-.25-.15-.6v-.3M6.15 9.2l.1-.05L6 9.4v-.05l.15-.15m-1.7-.65q-.15.25-.15.6-.05 1.05.7.95 1.5-.15 1.9-1.25.4-1.05.3-1.85l-.3.1-1.45.45q-1.95.6-3.5 1.65l1.35-.3-.05.05 1.2-.4m-6.2 2.15-.9.3q-5.9 2.6-11.2-.85-.55.35.1.9 1.35 1.1 3.1 1.55 4.85 1.25 8.9-1.9m.95.05h.05Q.85 10.5 1.7 9.3q-1.45.45-2.5 1.45" transform="translate(14.6 4.7)"/><path d="m4.45 8.55-1.2.4.05-.05-1.35.3q1.55-1.05 3.5-1.65L6.9 7.1l.3-.1q.1.8-.3 1.85-.4 1.1-1.9 1.25-.75.1-.7-.95 0-.35.15-.6m1.7.65L6 9.35v.05l.25-.25-.1.05M-.8 10.75q1.05-1 2.5-1.45-.85 1.2-2.45 1.45H-.8m-.95-.05q-4.05 3.15-8.9 1.9-1.75-.45-3.1-1.55-.65-.55-.1-.9 5.3 3.45 11.2.85l.9-.3" fill="#606060" transform="translate(14.6 4.7)"/></g></defs></svg>

<?xml version="1.0" encoding="UTF-8" standalone="no"?>
<svg xmlns:xlink="http://www.w3.org/1999/xlink" height="38.3px" width="36.05px" xmlns="http://www.w3.org/2000/svg">
  <g transform="matrix(1.0, 0.0, 0.0, 1.0, 23.8, 14.85)">
    <use height="18.15" transform="matrix(1.0, 0.0, 0.0, 1.0, -14.6, -4.7)" width="22.6" xlink:href="#shape0"/>
  </g>
  <defs>
    <g id="shape0" transform="matrix(1.0, 0.0, 0.0, 1.0, 14.6, 4.7)">
      <path d="M5.2 -0.1 L5.95 -0.55 6.25 -0.7 6.0 -2.0 Q5.8 -3.0 5.15 -3.55 L5.05 -3.6 5.0 -3.65 3.8 -4.1 -1.25 -4.55 -1.65 -4.5 -4.4 -4.1 -4.5 -4.1 -4.9 -4.05 -4.95 -4.05 -5.45 -3.8 -7.55 -1.15 -7.65 -0.95 -6.8 0.15 -7.5 -0.35 -7.85 -0.9 -6.35 -3.4 Q-5.85 -4.35 -4.65 -4.35 L-4.5 -4.35 -4.05 -4.4 1.7 -4.7 Q3.9 -4.8 5.45 -3.6 L5.75 -3.35 5.75 -3.1 5.7 -3.0 6.55 -0.75 6.3 -0.45 6.05 -0.4 Q1.4 1.95 -3.9 1.5 L-5.3 1.2 -5.2 1.2 -6.25 0.55 Q-5.3 1.1 -3.85 1.15 L-3.3 1.2 -2.6 1.25 0.5 1.3 0.65 1.3 Q2.65 1.05 4.55 0.2 L4.75 0.1 5.2 -0.1 M4.1 -3.4 L3.7 -3.2 Q-0.55 -1.55 -4.35 -3.4 -1.6 -4.2 1.4 -4.05 L3.8 -3.9 Q3.55 -3.85 4.1 -3.4 M6.5 -0.35 L6.6 -0.55 6.95 0.45 Q7.25 1.2 6.85 1.7 L7.45 2.7 7.6 3.1 Q8.05 4.1 8.0 5.15 L7.9 5.05 7.05 5.75 Q7.75 4.05 6.8 2.55 5.55 2.35 4.3 2.55 L2.15 3.1 -1.8 3.85 Q-5.15 4.1 -7.5 2.25 L-7.85 2.4 -8.0 2.05 Q-9.4 4.05 -11.3 5.6 -9.4 6.05 -7.7 6.9 L-7.65 6.95 Q-9.7 6.55 -11.3 5.65 L-12.8 6.7 Q-14.3 7.65 -13.6 8.7 L-13.95 8.5 -14.2 8.15 -14.25 8.1 Q-14.65 8.75 -14.0 9.25 L-13.0 9.95 Q-11.7 10.75 -10.35 11.05 -7.45 11.75 -4.15 10.4 1.35 8.2 6.9 6.5 L7.65 6.15 Q6.25 7.2 4.5 7.45 3.25 7.65 2.05 8.2 L-1.55 9.9 Q-6.95 12.6 -12.5 10.6 L-13.8 9.95 -14.6 9.45 Q-14.65 8.5 -14.15 7.7 L-12.75 6.4 Q-11.15 5.45 -10.0 3.9 L-8.25 1.7 -8.4 1.55 -8.9 0.85 Q-9.05 0.55 -8.8 0.25 L-8.1 -0.6 -7.9 -0.15 Q-6.95 1.15 -5.4 1.5 0.65 2.95 6.15 0.4 6.5 0.2 6.5 -0.15 L6.5 -0.35 M6.0 1.95 L5.95 1.9 5.9 1.95 6.0 1.95 M6.4 2.0 L6.35 1.95 6.35 2.0 6.4 2.0 M-12.3 12.55 L-12.75 12.4 -13.55 11.9 -12.3 12.55 M-14.1 11.15 L-14.45 10.35 -14.1 10.6 -14.2 10.75 -14.05 11.1 -14.1 11.15 M-6.4 7.5 L-10.5 5.35 -10.4 5.35 Q-8.1 5.95 -6.4 7.45 L-6.4 7.5" fill="#480002" fill-rule="evenodd" stroke="none"/>
      <path d="M3.8 -4.1 L3.75 -4.1 Q3.85 -3.55 4.6 -3.2 3.5 -2.75 2.7 -2.15 L4.45 -2.3 4.7 -2.45 4.75 -2.15 5.2 -0.2 5.2 -0.1 4.75 0.1 3.9 -1.95 3.85 -1.9 4.55 0.2 Q2.65 1.05 0.65 1.3 L0.35 -1.5 Q0.3 -0.05 0.5 1.3 L-2.6 1.25 -3.3 1.2 -2.6 -1.6 -2.55 -1.65 2.1 -1.95 Q-1.55 -1.25 -4.6 -3.25 L-4.75 -3.4 Q-2.3 -4.2 0.5 -4.4 L-1.65 -4.5 -1.25 -4.55 3.8 -4.1 M4.1 -3.4 Q3.55 -3.85 3.8 -3.9 L1.4 -4.05 Q-1.6 -4.2 -4.35 -3.4 -0.55 -1.55 3.7 -3.2 L4.1 -3.4 M-13.95 8.5 L-13.6 8.7 Q-14.3 7.65 -12.8 6.7 L-11.3 5.65 Q-9.7 6.55 -7.65 6.95 L-7.7 6.9 Q-9.4 6.05 -11.3 5.6 -9.4 4.05 -8.0 2.05 L-7.85 2.4 -7.5 2.25 Q-5.15 4.1 -1.8 3.85 L2.15 3.1 4.3 2.55 Q5.55 2.35 6.8 2.55 7.75 4.05 7.05 5.75 L7.05 5.85 7.0 5.85 6.6 6.15 5.9 6.4 2.85 7.3 Q2.1 7.5 1.45 7.85 -0.45 8.75 -2.4 9.45 L-5.25 10.35 -6.4 10.65 -6.6 10.7 Q-8.65 11.15 -10.8 10.75 L-11.55 10.55 Q-13.2 10.0 -14.0 8.6 L-14.0 8.55 -13.95 8.5 M4.9 1.1 L3.75 1.65 5.15 1.75 4.35 2.05 3.65 2.2 2.1 2.65 0.75 2.8 -0.1 2.85 0.3 2.85 0.75 2.75 2.2 2.3 2.15 2.25 1.7 2.25 2.3 2.1 1.45 2.05 4.9 1.1 M6.0 1.95 L5.9 1.95 5.95 1.9 6.0 1.95 M6.4 2.0 L6.35 2.0 6.35 1.95 6.4 2.0 M5.85 5.7 L6.1 5.85 Q8.05 4.9 6.6 3.4 5.75 4.35 5.85 5.7 M-1.75 2.85 L-0.1 2.85 -1.75 2.85 -3.8 2.6 -3.75 2.35 -2.3 2.8 -1.75 2.85 M-7.95 1.05 L-8.25 0.3 -8.1 -0.35 -8.05 -0.25 -8.1 -0.1 -8.15 0.1 -8.1 0.2 -8.15 0.6 Q-8.1 0.85 -8.0 0.6 L-7.95 0.55 -7.85 0.7 -7.9 0.9 -7.85 1.0 -7.9 1.0 -7.95 1.05 M-4.1 2.55 L-4.05 2.45 -4.05 2.55 -3.8 2.6 -4.1 2.55 M-7.1 1.1 L-6.95 1.3 -7.3 1.2 -7.15 1.05 -7.1 1.1 M-8.55 8.3 L-9.2 8.0 -10.9 7.25 -10.95 7.25 -10.95 7.2 Q-11.2 6.95 -11.05 6.65 L-11.1 6.6 -11.4 6.45 -11.75 6.75 -12.1 6.55 -12.45 6.65 Q-14.25 7.3 -12.55 8.4 L-11.65 8.75 -5.4 8.5 -6.7 8.35 -8.55 8.3 M-5.25 1.9 L-5.25 1.95 -5.3 1.95 -5.25 1.9 M-6.4 7.5 L-6.4 7.45 Q-8.1 5.95 -10.4 5.35 L-10.5 5.35 -6.4 7.5 M-11.25 7.0 L-11.2 7.1 -11.4 7.0 -11.25 7.0" fill="#910003" fill-rule="evenodd" stroke="none"/>
      <path d="M3.8 -4.1 L5.0 -3.65 5.05 -3.6 5.15 -3.55 Q5.8 -3.0 6.0 -2.0 L6.25 -0.7 5.95 -0.55 5.2 -0.1 5.2 -0.2 4.75 -2.15 4.7 -2.45 4.45 -2.3 2.7 -2.15 Q3.5 -2.75 4.6 -3.2 3.85 -3.55 3.75 -4.1 L3.8 -4.1 M4.75 0.1 L4.55 0.2 3.85 -1.9 3.9 -1.95 4.75 0.1 M0.65 1.3 L0.5 1.3 Q0.3 -0.05 0.35 -1.5 L0.65 1.3 M-3.3 1.2 L-3.85 1.15 Q-5.3 1.1 -6.25 0.55 L-6.35 0.5 -6.8 0.15 -7.65 -0.95 -7.55 -1.15 -5.45 -3.8 -4.95 -4.05 -4.9 -4.05 -4.5 -4.1 -4.4 -4.1 -1.65 -4.5 0.5 -4.4 Q-2.3 -4.2 -4.75 -3.4 L-4.6 -3.25 Q-1.55 -1.25 2.1 -1.95 L-2.55 -1.65 -2.6 -1.6 -3.3 1.2 M4.9 1.1 L6.2 0.55 6.4 0.45 6.45 0.85 6.45 0.95 6.25 1.2 5.8 1.45 6.25 1.2 6.45 0.95 6.45 0.85 6.4 0.45 6.2 0.55 4.9 1.1 1.45 2.05 2.3 2.1 1.7 2.25 2.15 2.25 2.2 2.3 0.75 2.75 0.3 2.85 -0.1 2.85 0.75 2.8 2.1 2.65 3.65 2.2 4.35 2.05 5.15 1.75 3.75 1.65 4.9 1.1 M5.65 1.5 L5.15 1.75 5.65 1.5 5.8 1.45 5.85 1.35 5.45 1.5 5.4 1.55 5.65 1.5 M5.85 5.7 Q5.75 4.35 6.6 3.4 8.05 4.9 6.1 5.85 L5.85 5.7 M-1.75 2.85 L-2.3 2.8 -3.75 2.35 -3.8 2.6 -1.75 2.85 M-8.05 -0.25 L-8.1 -0.35 -8.25 0.3 -7.95 1.05 -7.9 1.0 -7.85 1.0 -7.9 0.9 -7.85 0.7 -7.95 0.55 -8.0 0.6 Q-8.1 0.85 -8.15 0.6 L-8.1 0.2 -8.15 0.1 -8.1 -0.1 -8.05 -0.25 -8.05 -0.2 -6.5 1.35 -5.25 1.9 -4.55 2.05 Q-1.5 2.55 1.45 2.05 -1.5 2.55 -4.55 2.05 L-5.25 1.9 -6.5 1.35 -8.05 -0.2 -8.05 -0.25 M-4.1 2.55 L-4.8 2.4 -5.45 2.2 -5.65 2.15 -6.2 2.0 -7.1 1.65 -7.95 1.05 -7.1 1.65 -6.2 2.0 -5.65 2.15 -5.45 2.2 -4.8 2.4 -4.1 2.55 -3.8 2.6 -4.05 2.55 -4.05 2.45 -4.1 2.55 M-7.1 1.1 L-7.15 1.05 -7.3 1.2 -6.95 1.3 -7.1 1.1 M-5.25 1.9 L-5.3 1.95 -5.25 1.95 -5.25 1.9 M-8.55 8.3 L-6.7 8.35 -5.4 8.5 -11.65 8.75 -12.55 8.4 Q-14.25 7.3 -12.45 6.65 L-12.1 6.55 -11.75 6.75 -11.4 6.45 -11.1 6.6 -11.05 6.65 Q-11.2 6.95 -10.95 7.2 L-10.95 7.25 -10.9 7.25 -9.2 8.0 -8.55 8.3 M-11.25 7.0 L-11.4 7.0 -11.2 7.1 -11.25 7.0" fill="#c60005" fill-rule="evenodd" stroke="none"/>
      <path d="M-5.3 1.2 L-3.9 1.5 Q1.4 1.95 6.05 -0.4 L6.3 -0.45 5.35 0.3 Q6.2 0.1 6.5 -0.35 L6.5 -0.15 Q6.5 0.2 6.15 0.4 0.65 2.95 -5.4 1.5 -6.95 1.15 -7.9 -0.15 L-8.1 -0.6 -7.85 -0.9 -7.5 -0.35 -7.75 -0.6 -7.8 -0.55 Q-7.15 1.25 -5.3 1.2 M-13.0 9.95 L-14.0 9.25 Q-14.65 8.75 -14.25 8.1 L-14.2 8.15 -14.25 8.15 Q-13.8 9.25 -13.0 9.95 M3.55 0.85 L3.3 0.9 -0.45 1.75 -0.4 1.75 Q1.8 1.9 3.55 0.85" fill="#ffbe46" fill-rule="evenodd" stroke="none"/>
      <path d="M-6.25 0.55 L-5.2 1.2 -5.3 1.2 Q-7.15 1.25 -7.8 -0.55 L-7.75 -0.6 -7.5 -0.35 -6.8 0.15 -6.35 0.5 -6.25 0.55 M6.3 -0.45 L6.55 -0.75 6.6 -0.55 6.5 -0.35 Q6.2 0.1 5.35 0.3 L6.3 -0.45 M-10.35 11.05 Q-11.7 10.75 -13.0 9.95 -13.8 9.25 -14.25 8.15 L-14.2 8.15 -13.95 8.5 -14.0 8.55 -14.0 8.6 Q-13.2 10.0 -11.55 10.55 L-9.95 11.05 -9.9 11.1 -10.35 11.05 M7.05 5.85 L7.05 5.75 7.95 5.2 Q7.9 6.15 6.5 6.6 L4.6 7.15 4.3 7.15 5.9 6.4 6.6 6.15 7.0 5.85 7.05 5.85 M3.55 0.85 Q1.8 1.9 -0.4 1.75 L-0.45 1.75 3.3 0.9 3.55 0.85" fill="#ffffff" fill-rule="evenodd" stroke="none"/>
      <path d="M-14.6 9.45 L-13.8 9.95 -12.5 10.6 Q-6.95 12.6 -1.55 9.9 L2.05 8.2 Q3.25 7.65 4.5 7.45 6.25 7.2 7.65 6.15 L7.8 6.2 7.65 7.1 7.6 7.2 7.1 9.55 6.4 9.95 6.25 10.1 4.65 10.55 4.25 10.7 2.9 10.45 2.45 10.2 2.2 9.9 Q0.85 10.65 -0.5 11.35 -4.65 14.2 -9.85 13.2 L-10.1 13.15 -11.4 12.85 -12.2 12.6 -12.3 12.55 -13.55 11.9 -13.6 11.9 -13.75 11.65 -13.8 11.6 -13.9 11.5 -14.15 11.15 -14.1 11.15 -14.05 11.1 -14.2 10.75 -14.1 10.6 -14.45 10.35 -14.6 9.75 -14.6 9.45 M6.15 9.2 L6.25 9.15 6.0 9.4 6.0 9.35 6.15 9.2 M4.45 8.55 Q4.3 8.8 4.3 9.15 4.25 10.2 5.0 10.1 6.5 9.95 6.9 8.85 7.3 7.8 7.2 7.0 L6.9 7.1 5.45 7.55 Q3.5 8.15 1.95 9.2 L3.3 8.9 3.25 8.95 4.45 8.55 M-1.75 10.7 L-2.65 11.0 Q-8.55 13.6 -13.85 10.15 -14.4 10.5 -13.75 11.05 -12.4 12.15 -10.65 12.6 -5.8 13.85 -1.75 10.7 M-0.8 10.75 L-0.75 10.75 Q0.85 10.5 1.7 9.3 0.25 9.75 -0.8 10.75" fill="#000000" fill-rule="evenodd" stroke="none"/>
      <path d="M4.45 8.55 L3.25 8.95 3.3 8.9 1.95 9.2 Q3.5 8.15 5.45 7.55 L6.9 7.1 7.2 7.0 Q7.3 7.8 6.9 8.85 6.5 9.95 5.0 10.1 4.25 10.2 4.3 9.15 4.3 8.8 4.45 8.55 M6.15 9.2 L6.0 9.35 6.0 9.4 6.25 9.15 6.15 9.2 M-0.8 10.75 Q0.25 9.75 1.7 9.3 0.85 10.5 -0.75 10.75 L-0.8 10.75 M-1.75 10.7 Q-5.8 13.85 -10.65 12.6 -12.4 12.15 -13.75 11.05 -14.4 10.5 -13.85 10.15 -8.55 13.6 -2.65 11.0 L-1.75 10.7" fill="#606060" fill-rule="evenodd" stroke="none"/>
    </g>
  </defs>
</svg>
